X: 540
%
U:~=!turn!
T: Parish of Dalmailing
C:James Porteous
O:Scotland
B:Keith Norman MacDonald : "The Skye collection of the best reels & strathspeys extant" : 1887
Z:Ralph Palmer
R:Strathspey
M:C
L:1/8
K:Eb
B, | E>FEe B<GF>E | D<FF>E D<FF<G | E>FEe B<GF>E | D<B,C>D E>FE>B, | E>FEe B<GF>E |
D<FF>E D<FF>G | E>FEe B<GF>E | D<B,C>D E2 E || e/f/ | geBG eBGE | c<AF>E DF-Fe/f/ |
geBG eBGE | c<AF>D E2- Ec/d/ | eEdE cEBE | D<FTF>E DF-TFG/F/ | EB,CE B,E{/d}ec | B<GF>G E2 E |]


